!!!COM: Rimsky Korsakov, Nikolaï
!!!OPR: Pratical manual of harmony
!!!XEN: Modulation
!!!OTL: 3-17d. A minor to E Major
!!!ENC: Laurent Feisthauer and Nestor Napoles Lopez
**kern	**kern	**kern	**kern	**text
*staff4	*staff3	*staff2	*staff1	*
*clefF4	*clefF4	*clefG2	*clefG2	*
*k[]	*k[]	*k[]	*k[]	*
*C:	*C:	*C:	*C:	*
*M3/2	*M3/2	*M3/2	*M3/2	*
2A\	2e/	2a\	2cc/	.
1F\	1d/	2a-\	2dd/	.
.	.	2g\	2b/	.
=1	=1	=1	=1	=1
2E\	1c/	2g\	2c/	.
2F\	.	2f\	2a/	.
2D\	2B/	2f\	2b/	.
=2	=2	=2	=2	=2
2E\	2B/	1.e\	2g#/	.
2C\	2A/	.	2a/	.
2C#\	2B-/	.	2g/	.
=3	=3	=3	=3	=3
2D\	2A/	2d\	2f/	.
2E\	1G#/	1B\	1e/	.
2D\	.	.	.	.
=4	=4	=4	=4	=4
2C\	2A/	2A\	2e/	.
2BB\	2F#/	2B\	2d#/	.
2AA\	2B/	2d#\	2f#	.
=5	=5	=5	=5	=5
1GG#\	2B/	1.e\	1b/	.
.	2d/	.	.	.
2AA\	2c/	.	2a/	.
=6	=6	=6	=6	=6
1.BB\	1B/	2e\	2g#/	.
.	.	1d#\	1f#/	.
.	2A/	.	.	.
=7	=7	=7	=7	=7
1.E\	1.G#/	1.e\	1.e/	.
==	==	==	==	==
!!!filter: satb2gs
!!!filter: autobeam
*-	*-	*-	*-	*-
